app/dist/common/images/wuxi-lead-intellig.svg

<svg height="18" viewBox="0 0 18 18" width="18" xmlns="http://www.w3.org/2000/svg"><path d="m0 0h18v18h-18z" fill="#f0f3fa"/><path d="m12.37 11.96h.13v-7.61l-.35.69v6.92zm-4.41 1.04 4.35-9h-1.27l-4.3 9z" fill="#e12129"/><path d="m6 10.44h1.58l.47-.99h-2.05v-.45h2.2l.45-1h-3.65v4h1.9l.48-1h-1.38zm-3 .56v-3h-1v4h2.8v-1zm7.18-.77h1.27v-2.6zm1.27.77h-1.5l-.5 1h2zm3.58 1c.4-.01 1-.38.97-1.18v-1.62c.02-.8-.47-1.2-1.13-1.19h-1.87v2.55h1v-1.56h.67c.24 0 .33.21.33.42v1.13c0 .25-.08.45-.3.45h-1.7v1z" fill="#243663"/></svg>

<!-- by TradingView --><svg width="18" height="18" viewBox="0 0 18 18" xmlns="http://www.w3.org/2000/svg"><path fill="#F0F3FA" d="M0 0h18v18H0z"/><path d="M12.37 11.96h.13V4.35l-.35.69v6.92h.22ZM7.96 13l4.35-9h-1.27l-4.3 9h1.22Z" fill="#E12129"/><path d="M6 10.44h1.58l.47-.99H6V9h2.2l.45-1H5v4h1.9l.48-1H6v-.56ZM3 11V8H2v4h2.8v-1H3ZM10.18 10.23h1.27v-2.6l-1.27 2.6ZM11.45 11h-1.5l-.5 1h2v-1ZM15.03 12c.4-.01 1-.38.97-1.18V9.2c.02-.8-.47-1.2-1.13-1.19H13v2.55h1V9h.67c.24 0 .33.21.33.42v1.13c0 .25-.08.45-.3.45H13v1h2.03Z" fill="#243663"/></svg>
